X:50
T:Retour de la Joye
O:vlaanderen
C:Trad.
Z:Bart Vanhaverbeke 
P:(AABBCC)x3
L:1/8
M:2/4
K:G
P:A
d/c/B/A/ GB | GB GB | AB cA | {d}~c2 B2 | d/c/B/A/ GB | GB GB | FG AF | D2 D2 :|
P:B
K:Gmin
.d(e de) | .d(e de) | dc BA | cB AG | .d(e de) | .d(e de) | dc BA | G2 G,2 :|
P:C
K:G
{A}G2 B2 | {e}dd cB | cc BA | cB AG | {A}G2 B2 | {e}dd cB | cc BA | G2 G2 :|
